images/16758408.svg

<?xml version="1.0" encoding="UTF-8"?>
<svg xmlns="http://www.w3.org/2000/svg" xmlns:xlink="http://www.w3.org/1999/xlink" width="300pt" height="300pt" viewBox="0 0 300 300" version="1.1">
<defs>
<g>
<symbol overflow="visible" id="glyph0-0">
<path style="stroke:none;" d="M 0.453125 1.59375 L 0.453125 -6.34375 L 4.953125 -6.34375 L 4.953125 1.59375 Z M 0.953125 1.09375 L 4.453125 1.09375 L 4.453125 -5.84375 L 0.953125 -5.84375 Z M 0.953125 1.09375 "/>
</symbol>
<symbol overflow="visible" id="glyph0-1">
<path style="stroke:none;" d="M 0.890625 -6.5625 L 2.078125 -6.5625 L 4.984375 -1.078125 L 4.984375 -6.5625 L 5.84375 -6.5625 L 5.84375 0 L 4.65625 0 L 1.75 -5.484375 L 1.75 0 L 0.890625 0 Z M 0.890625 -6.5625 "/>
</symbol>
<symbol overflow="visible" id="glyph0-2">
<path style="stroke:none;" d="M 3.546875 -5.953125 C 2.898438 -5.953125 2.382812 -5.710938 2 -5.234375 C 1.625 -4.753906 1.4375 -4.101562 1.4375 -3.28125 C 1.4375 -2.445312 1.625 -1.789062 2 -1.3125 C 2.382812 -0.832031 2.898438 -0.59375 3.546875 -0.59375 C 4.191406 -0.59375 4.703125 -0.832031 5.078125 -1.3125 C 5.453125 -1.789062 5.640625 -2.445312 5.640625 -3.28125 C 5.640625 -4.101562 5.453125 -4.753906 5.078125 -5.234375 C 4.703125 -5.710938 4.191406 -5.953125 3.546875 -5.953125 Z M 3.546875 -6.6875 C 4.460938 -6.6875 5.195312 -6.375 5.75 -5.75 C 6.300781 -5.132812 6.578125 -4.3125 6.578125 -3.28125 C 6.578125 -2.238281 6.300781 -1.410156 5.75 -0.796875 C 5.195312 -0.179688 4.460938 0.125 3.546875 0.125 C 2.617188 0.125 1.878906 -0.179688 1.328125 -0.796875 C 0.773438 -1.410156 0.5 -2.238281 0.5 -3.28125 C 0.5 -4.3125 0.773438 -5.132812 1.328125 -5.75 C 1.878906 -6.375 2.617188 -6.6875 3.546875 -6.6875 Z M 3.546875 -6.6875 "/>
</symbol>
</g>
</defs>
<g id="surface48993">
<rect x="0" y="0" width="300" height="300" style="fill:rgb(100%,100%,100%);fill-opacity:1;stroke:none;"/>
<path style="fill:none;stroke-width:1.2;stroke-linecap:butt;stroke-linejoin:miter;stroke:rgb(0%,0%,0%);stroke-opacity:1;stroke-miterlimit:10;" d="M 236.734375 112.054688 L 232.382812 130.742188 "/>
<path style="fill:none;stroke-width:1.2;stroke-linecap:butt;stroke-linejoin:miter;stroke:rgb(0%,0%,0%);stroke-opacity:1;stroke-miterlimit:10;" d="M 232.382812 130.742188 L 214.027344 136.316406 "/>
<path style="fill:none;stroke-width:1.2;stroke-linecap:butt;stroke-linejoin:miter;stroke:rgb(0%,0%,0%);stroke-opacity:1;stroke-miterlimit:10;" d="M 231.859375 135.617188 L 217.175781 140.078125 "/>
<path style="fill:none;stroke-width:1.2;stroke-linecap:butt;stroke-linejoin:miter;stroke:rgb(0%,0%,0%);stroke-opacity:1;stroke-miterlimit:10;" d="M 246.394531 143.851562 L 232.382812 130.742188 "/>
<path style="fill:none;stroke-width:1.2;stroke-linecap:butt;stroke-linejoin:miter;stroke:rgb(0%,0%,0%);stroke-opacity:1;stroke-miterlimit:10;" d="M 214.027344 136.316406 L 209.679688 155.003906 "/>
<path style="fill:none;stroke-width:1.2;stroke-linecap:butt;stroke-linejoin:miter;stroke:rgb(0%,0%,0%);stroke-opacity:1;stroke-miterlimit:10;" d="M 209.679688 155.003906 L 223.6875 168.113281 "/>
<path style="fill:none;stroke-width:1.2;stroke-linecap:butt;stroke-linejoin:miter;stroke:rgb(0%,0%,0%);stroke-opacity:1;stroke-miterlimit:10;" d="M 207.996094 159.609375 L 219.203125 170.097656 "/>
<path style="fill:none;stroke-width:1.2;stroke-linecap:butt;stroke-linejoin:miter;stroke:rgb(0%,0%,100%);stroke-opacity:1;stroke-miterlimit:10;" d="M 190.695312 157.78125 L 200.1875 156.394531 "/>
<path style="fill:none;stroke-width:1.2;stroke-linecap:butt;stroke-linejoin:miter;stroke:rgb(0%,0%,0%);stroke-opacity:1;stroke-miterlimit:10;" d="M 200.1875 156.394531 L 209.679688 155.003906 "/>
<path style="fill:none;stroke-width:1.2;stroke-linecap:butt;stroke-linejoin:miter;stroke:rgb(0%,0%,0%);stroke-opacity:1;stroke-miterlimit:10;" d="M 223.6875 168.113281 L 222.171875 187.238281 "/>
<path style="fill:none;stroke-width:1.2;stroke-linecap:butt;stroke-linejoin:miter;stroke:rgb(0%,0%,0%);stroke-opacity:1;stroke-miterlimit:10;" d="M 223.6875 168.113281 L 232.867188 165.324219 "/>
<path style="fill:none;stroke-width:1.2;stroke-linecap:butt;stroke-linejoin:miter;stroke:rgb(0%,0%,100%);stroke-opacity:1;stroke-miterlimit:10;" d="M 232.867188 165.324219 L 242.042969 162.535156 "/>
<path style="fill:none;stroke-width:1.2;stroke-linecap:butt;stroke-linejoin:miter;stroke:rgb(0%,0%,0%);stroke-opacity:1;stroke-miterlimit:10;" d="M 222.171875 187.238281 L 206.273438 197.980469 "/>
<path style="fill:none;stroke-width:1.2;stroke-linecap:butt;stroke-linejoin:miter;stroke:rgb(0%,0%,0%);stroke-opacity:1;stroke-miterlimit:10;" d="M 206.273438 197.980469 L 187.964844 192.246094 "/>
<path style="fill:none;stroke-width:1.2;stroke-linecap:butt;stroke-linejoin:miter;stroke:rgb(0%,0%,0%);stroke-opacity:1;stroke-miterlimit:10;" d="M 187.964844 192.246094 L 181.03125 174.355469 "/>
<path style="fill:none;stroke-width:1.2;stroke-linecap:butt;stroke-linejoin:miter;stroke:rgb(0%,0%,0%);stroke-opacity:1;stroke-miterlimit:10;" d="M 181.03125 174.355469 L 185.863281 166.070312 "/>
<path style="fill:none;stroke-width:1.2;stroke-linecap:butt;stroke-linejoin:miter;stroke:rgb(0%,0%,100%);stroke-opacity:1;stroke-miterlimit:10;" d="M 185.863281 166.070312 L 190.695312 157.78125 "/>
<path style="fill:none;stroke-width:1.2;stroke-linecap:butt;stroke-linejoin:miter;stroke:rgb(0%,0%,100%);stroke-opacity:1;stroke-miterlimit:10;" d="M 190.695312 157.78125 L 185.324219 149.832031 "/>
<path style="fill:none;stroke-width:1.2;stroke-linecap:butt;stroke-linejoin:miter;stroke:rgb(0%,0%,0%);stroke-opacity:1;stroke-miterlimit:10;" d="M 185.324219 149.832031 L 179.957031 141.886719 "/>
<path style=" stroke:none;fill-rule:nonzero;fill:rgb(100%,100%,100%);fill-opacity:1;" d="M 187.695312 152.28125 L 194.695312 152.28125 L 194.695312 163.28125 L 187.695312 163.28125 Z M 187.695312 152.28125 "/>
<g style="fill:rgb(0%,0%,100%);fill-opacity:1;">
  <use xlink:href="#glyph0-1" x="187.695312" y="160.944336"/>
</g>
<path style="fill:none;stroke-width:1.2;stroke-linecap:butt;stroke-linejoin:miter;stroke:rgb(0%,0%,0%);stroke-opacity:1;stroke-miterlimit:10;" d="M 179.957031 141.886719 L 160.816406 143.238281 "/>
<path style="fill:none;stroke-width:1.2;stroke-linecap:butt;stroke-linejoin:miter;stroke:rgb(0%,0%,0%);stroke-opacity:1;stroke-miterlimit:10;" d="M 160.816406 143.238281 L 150.078125 127.339844 "/>
<path style="fill:none;stroke-width:1.2;stroke-linecap:butt;stroke-linejoin:miter;stroke:rgb(0%,0%,0%);stroke-opacity:1;stroke-miterlimit:10;" d="M 150.078125 127.339844 L 140.507812 128.015625 "/>
<path style="fill:none;stroke-width:1.2;stroke-linecap:butt;stroke-linejoin:miter;stroke:rgb(0%,0%,100%);stroke-opacity:1;stroke-miterlimit:10;" d="M 140.507812 128.015625 L 130.9375 128.691406 "/>
<path style="fill:none;stroke-width:1.2;stroke-linecap:butt;stroke-linejoin:miter;stroke:rgb(0%,0%,0%);stroke-opacity:1;stroke-miterlimit:10;" d="M 147.84375 122.972656 L 140.191406 123.511719 "/>
<path style="fill:none;stroke-width:1.2;stroke-linecap:butt;stroke-linejoin:miter;stroke:rgb(0%,0%,100%);stroke-opacity:1;stroke-miterlimit:10;" d="M 140.191406 123.511719 L 132.535156 124.054688 "/>
<path style="fill:none;stroke-width:1.2;stroke-linecap:butt;stroke-linejoin:miter;stroke:rgb(0%,0%,0%);stroke-opacity:1;stroke-miterlimit:10;" d="M 150.078125 127.339844 L 158.476562 110.089844 "/>
<path style="fill:none;stroke-width:1.2;stroke-linecap:butt;stroke-linejoin:miter;stroke:rgb(0%,0%,100%);stroke-opacity:1;stroke-miterlimit:10;" d="M 130.9375 128.691406 L 125.570312 120.742188 "/>
<path style="fill:none;stroke-width:1.2;stroke-linecap:butt;stroke-linejoin:miter;stroke:rgb(100%,0%,0%);stroke-opacity:1;stroke-miterlimit:10;" d="M 125.570312 120.742188 L 120.199219 112.792969 "/>
<path style=" stroke:none;fill-rule:nonzero;fill:rgb(100%,100%,100%);fill-opacity:1;" d="M 127.9375 123.191406 L 134.9375 123.191406 L 134.9375 134.191406 L 127.9375 134.191406 Z M 127.9375 123.191406 "/>
<g style="fill:rgb(0%,0%,100%);fill-opacity:1;">
  <use xlink:href="#glyph0-1" x="127.9375" y="131.854492"/>
</g>
<path style="fill:none;stroke-width:1;stroke-linecap:butt;stroke-linejoin:miter;stroke:rgb(0%,0%,0%);stroke-opacity:1;stroke-miterlimit:10;" d="M 101.0625 114.148438 L 101.0625 114.148438 M 104.046875 114.460938 L 103.972656 113.417969 M 107.027344 114.769531 L 106.882812 112.691406 M 110.011719 115.082031 L 109.792969 111.960938 M 112.996094 115.394531 L 112.703125 111.234375 M 115.980469 115.707031 L 115.613281 110.503906 M 118.964844 116.019531 L 118.523438 109.777344 M 120.4375 116.171875 L 119.960938 109.417969 "/>
<path style=" stroke:none;fill-rule:nonzero;fill:rgb(100%,100%,100%);fill-opacity:1;" d="M 116.199219 107.292969 L 124.199219 107.292969 L 124.199219 118.292969 L 116.199219 118.292969 Z M 116.199219 107.292969 "/>
<g style="fill:rgb(100%,0%,0%);fill-opacity:1;">
  <use xlink:href="#glyph0-2" x="116.199219" y="115.956055"/>
</g>
<path style="fill:none;stroke-width:1.2;stroke-linecap:butt;stroke-linejoin:miter;stroke:rgb(0%,0%,0%);stroke-opacity:1;stroke-miterlimit:10;" d="M 101.0625 114.148438 L 90.320312 98.25 "/>
<path style="fill:none;stroke-width:1.2;stroke-linecap:butt;stroke-linejoin:miter;stroke:rgb(0%,0%,0%);stroke-opacity:1;stroke-miterlimit:10;" d="M 101.0625 114.148438 L 92.664062 131.398438 "/>
<path style="fill:none;stroke-width:1.2;stroke-linecap:butt;stroke-linejoin:miter;stroke:rgb(0%,0%,0%);stroke-opacity:1;stroke-miterlimit:10;" d="M 92.664062 131.398438 L 83.09375 132.074219 "/>
<path style="fill:none;stroke-width:1.2;stroke-linecap:butt;stroke-linejoin:miter;stroke:rgb(0%,0%,100%);stroke-opacity:1;stroke-miterlimit:10;" d="M 83.09375 132.074219 L 73.527344 132.75 "/>
<path style="fill:none;stroke-width:1.2;stroke-linecap:butt;stroke-linejoin:miter;stroke:rgb(0%,0%,100%);stroke-opacity:1;stroke-miterlimit:10;" d="M 73.527344 132.75 L 68.15625 124.800781 "/>
<path style="fill:none;stroke-width:1.2;stroke-linecap:butt;stroke-linejoin:miter;stroke:rgb(0%,0%,0%);stroke-opacity:1;stroke-miterlimit:10;" d="M 68.15625 124.800781 L 62.785156 116.851562 "/>
<path style="fill:none;stroke-width:1.2;stroke-linecap:butt;stroke-linejoin:miter;stroke:rgb(0%,0%,0%);stroke-opacity:1;stroke-miterlimit:10;" d="M 65.128906 150 L 69.328125 141.375 "/>
<path style="fill:none;stroke-width:1.2;stroke-linecap:butt;stroke-linejoin:miter;stroke:rgb(0%,0%,100%);stroke-opacity:1;stroke-miterlimit:10;" d="M 69.328125 141.375 L 73.527344 132.75 "/>
<path style=" stroke:none;fill-rule:nonzero;fill:rgb(100%,100%,100%);fill-opacity:1;" d="M 70.527344 127.25 L 77.527344 127.25 L 77.527344 138.25 L 70.527344 138.25 Z M 70.527344 127.25 "/>
<g style="fill:rgb(0%,0%,100%);fill-opacity:1;">
  <use xlink:href="#glyph0-1" x="70.527344" y="135.913086"/>
</g>
<path style="fill:none;stroke-width:1.2;stroke-linecap:butt;stroke-linejoin:miter;stroke:rgb(0%,0%,0%);stroke-opacity:1;stroke-miterlimit:10;" d="M 62.785156 116.851562 L 43.648438 118.203125 "/>
<path style="fill:none;stroke-width:1.2;stroke-linecap:butt;stroke-linejoin:miter;stroke:rgb(0%,0%,0%);stroke-opacity:1;stroke-miterlimit:10;" d="M 43.648438 118.203125 L 35.25 135.453125 "/>
<path style="fill:none;stroke-width:1.2;stroke-linecap:butt;stroke-linejoin:miter;stroke:rgb(0%,0%,0%);stroke-opacity:1;stroke-miterlimit:10;" d="M 35.25 135.453125 L 45.988281 151.351562 "/>
<path style="fill:none;stroke-width:1.2;stroke-linecap:butt;stroke-linejoin:miter;stroke:rgb(0%,0%,0%);stroke-opacity:1;stroke-miterlimit:10;" d="M 45.988281 151.351562 L 65.128906 150 "/>
<path style="fill:none;stroke-width:1.2;stroke-linecap:butt;stroke-linejoin:miter;stroke:rgb(0%,0%,0%);stroke-opacity:1;stroke-miterlimit:10;" d="M 48.222656 155.71875 L 63.53125 154.636719 "/>
<path style="fill:none;stroke-width:1.2;stroke-linecap:butt;stroke-linejoin:miter;stroke:rgb(0%,0%,100%);stroke-opacity:1;stroke-miterlimit:10;" d="M 37.59375 168.601562 L 41.792969 159.976562 "/>
<path style="fill:none;stroke-width:1.2;stroke-linecap:butt;stroke-linejoin:miter;stroke:rgb(0%,0%,0%);stroke-opacity:1;stroke-miterlimit:10;" d="M 41.792969 159.976562 L 45.988281 151.351562 "/>
<path style="fill:none;stroke-width:1.2;stroke-linecap:butt;stroke-linejoin:miter;stroke:rgb(0%,0%,0%);stroke-opacity:1;stroke-miterlimit:10;" d="M 65.128906 150 L 75.867188 165.898438 "/>
<path style="fill:none;stroke-width:1.2;stroke-linecap:butt;stroke-linejoin:miter;stroke:rgb(0%,0%,0%);stroke-opacity:1;stroke-miterlimit:10;" d="M 75.867188 165.898438 L 67.46875 183.148438 "/>
<path style="fill:none;stroke-width:1.2;stroke-linecap:butt;stroke-linejoin:miter;stroke:rgb(0%,0%,0%);stroke-opacity:1;stroke-miterlimit:10;" d="M 70.96875 165.648438 L 64.25 179.445312 "/>
<path style="fill:none;stroke-width:1.2;stroke-linecap:butt;stroke-linejoin:miter;stroke:rgb(0%,0%,0%);stroke-opacity:1;stroke-miterlimit:10;" d="M 67.46875 183.148438 L 48.332031 184.5 "/>
<path style="fill:none;stroke-width:1.2;stroke-linecap:butt;stroke-linejoin:miter;stroke:rgb(0%,0%,0%);stroke-opacity:1;stroke-miterlimit:10;" d="M 67.46875 183.148438 L 78.210938 199.046875 "/>
<path style="fill:none;stroke-width:1.2;stroke-linecap:butt;stroke-linejoin:miter;stroke:rgb(0%,0%,0%);stroke-opacity:1;stroke-miterlimit:10;" d="M 48.332031 184.5 L 42.960938 176.550781 "/>
<path style="fill:none;stroke-width:1.2;stroke-linecap:butt;stroke-linejoin:miter;stroke:rgb(0%,0%,100%);stroke-opacity:1;stroke-miterlimit:10;" d="M 42.960938 176.550781 L 37.59375 168.601562 "/>
<path style="fill:none;stroke-width:1.2;stroke-linecap:butt;stroke-linejoin:miter;stroke:rgb(0%,0%,0%);stroke-opacity:1;stroke-miterlimit:10;" d="M 51 180.382812 L 46.703125 174.023438 "/>
<path style="fill:none;stroke-width:1.2;stroke-linecap:butt;stroke-linejoin:miter;stroke:rgb(0%,0%,100%);stroke-opacity:1;stroke-miterlimit:10;" d="M 46.703125 174.023438 L 42.40625 167.664062 "/>
<path style="fill:none;stroke-width:1.2;stroke-linecap:butt;stroke-linejoin:miter;stroke:rgb(0%,0%,0%);stroke-opacity:1;stroke-miterlimit:10;" d="M 48.332031 184.5 L 39.933594 201.75 "/>
<path style=" stroke:none;fill-rule:nonzero;fill:rgb(100%,100%,100%);fill-opacity:1;" d="M 34.59375 163.101562 L 41.59375 163.101562 L 41.59375 174.101562 L 34.59375 174.101562 Z M 34.59375 163.101562 "/>
<g style="fill:rgb(0%,0%,100%);fill-opacity:1;">
  <use xlink:href="#glyph0-1" x="34.59375" y="171.764648"/>
</g>
<path style="fill:none;stroke-width:1.2;stroke-linecap:butt;stroke-linejoin:miter;stroke:rgb(0%,0%,100%);stroke-opacity:1;stroke-miterlimit:10;" d="M 242.042969 162.535156 L 244.21875 153.191406 "/>
<path style="fill:none;stroke-width:1.2;stroke-linecap:butt;stroke-linejoin:miter;stroke:rgb(0%,0%,0%);stroke-opacity:1;stroke-miterlimit:10;" d="M 244.21875 153.191406 L 246.394531 143.851562 "/>
<path style="fill:none;stroke-width:1.2;stroke-linecap:butt;stroke-linejoin:miter;stroke:rgb(0%,0%,100%);stroke-opacity:1;stroke-miterlimit:10;" d="M 238.082031 159.644531 L 239.820312 152.167969 "/>
<path style="fill:none;stroke-width:1.2;stroke-linecap:butt;stroke-linejoin:miter;stroke:rgb(0%,0%,0%);stroke-opacity:1;stroke-miterlimit:10;" d="M 239.820312 152.167969 L 241.5625 144.695312 "/>
<path style=" stroke:none;fill-rule:nonzero;fill:rgb(100%,100%,100%);fill-opacity:1;" d="M 239.042969 157.035156 L 246.042969 157.035156 L 246.042969 168.035156 L 239.042969 168.035156 Z M 239.042969 157.035156 "/>
<g style="fill:rgb(0%,0%,100%);fill-opacity:1;">
  <use xlink:href="#glyph0-1" x="239.042969" y="165.698242"/>
</g>
<path style="fill:none;stroke-width:1.2;stroke-linecap:butt;stroke-linejoin:miter;stroke:rgb(0%,0%,0%);stroke-opacity:1;stroke-miterlimit:10;" d="M 246.394531 143.851562 L 264.75 138.273438 "/>
</g>
</svg>

<svg xmlns="http://www.w3.org/2000/svg" xmlns:xlink="http://www.w3.org/1999/xlink" width="300pt" height="300pt" viewBox="0 0 300 300"><defs><symbol overflow="visible"><path d="M.453 1.594v-7.938h4.5v7.938zm.5-.5h3.5v-6.938h-3.5zm0 0"/></symbol><symbol overflow="visible" id="a"><path d="M.89-6.563H2.08l2.906 5.485v-5.484h.86V0H4.656L1.75-5.484V0H.89zm0 0"/></symbol><symbol overflow="visible" id="b"><path d="M3.547-5.953c-.65 0-1.164.242-1.547.72-.375.48-.563 1.13-.563 1.952 0 .835.188 1.49.563 1.967.383.48.898.72 1.547.72.644 0 1.156-.24 1.53-.72.376-.476.564-1.132.564-1.968 0-.822-.187-1.474-.562-1.954-.375-.477-.887-.72-1.53-.72zm0-.734c.914 0 1.648.312 2.203.937.55.617.828 1.438.828 2.47 0 1.042-.277 1.87-.828 2.483-.555.617-1.29.922-2.203.922-.93 0-1.668-.305-2.22-.922C.774-1.41.5-2.237.5-3.28c0-1.033.273-1.853.828-2.47.55-.625 1.29-.938 2.22-.938zm0 0"/></symbol></defs><g><path fill="#fff" d="M0 0h300v300H0z"/><path d="M236.734 112.055l-4.35 18.687M232.383 130.742l-18.356 5.574M231.86 135.617l-14.684 4.46M246.395 143.852l-14.012-13.11M214.027 136.316l-4.347 18.688M209.68 155.004l14.007 13.11M207.996 159.61l11.207 10.488" stroke-width="1.2" stroke="#000" stroke-miterlimit="10" fill="none"/><path d="M190.695 157.78l9.493-1.385" stroke-width="1.2" stroke="#00f" stroke-miterlimit="10" fill="none"/><path d="M200.188 156.395l9.492-1.39M223.688 168.113l-1.516 19.125M223.688 168.113l9.18-2.79" stroke-width="1.2" stroke="#000" stroke-miterlimit="10" fill="none"/><path d="M232.867 165.324l9.176-2.79" stroke-width="1.2" stroke="#00f" stroke-miterlimit="10" fill="none"/><path d="M222.172 187.238l-15.9 10.742M206.273 197.98l-18.308-5.734M187.965 192.246l-6.934-17.89M181.03 174.355l4.833-8.285" stroke-width="1.2" stroke="#000" stroke-miterlimit="10" fill="none"/><path d="M185.863 166.07l4.832-8.29M190.695 157.78l-5.37-7.948" stroke-width="1.2" stroke="#00f" stroke-miterlimit="10" fill="none"/><path d="M185.324 149.832l-5.367-7.945" stroke-width="1.2" stroke="#000" stroke-miterlimit="10" fill="none"/><path d="M187.695 152.28h7v11h-7zm0 0" fill="#fff"/><use xlink:href="#a" x="187.695" y="160.944" fill="#00f"/><path d="M179.957 141.887l-19.14 1.35M160.816 143.238l-10.738-15.898M150.078 127.34l-9.57.676" stroke-width="1.2" stroke="#000" stroke-miterlimit="10" fill="none"/><path d="M140.508 128.016l-9.57.675" stroke-width="1.2" stroke="#00f" stroke-miterlimit="10" fill="none"/><path d="M147.844 122.973l-7.653.54" stroke-width="1.2" stroke="#000" stroke-miterlimit="10" fill="none"/><path d="M140.19 123.512l-7.655.543" stroke-width="1.2" stroke="#00f" stroke-miterlimit="10" fill="none"/><path d="M150.078 127.34l8.4-17.25" stroke-width="1.2" stroke="#000" stroke-miterlimit="10" fill="none"/><path d="M130.938 128.69l-5.368-7.948" stroke-width="1.2" stroke="#00f" stroke-miterlimit="10" fill="none"/><path d="M125.57 120.742l-5.37-7.95" stroke-width="1.2" stroke="#f00" stroke-miterlimit="10" fill="none"/><path d="M127.938 123.19h7v11h-7zm0 0" fill="#fff"/><use xlink:href="#a" x="127.938" y="131.854" fill="#00f"/><path d="M101.063 114.148m2.984.313l-.074-1.042m3.054 1.352l-.144-2.08m3.13 2.392l-.22-3.12m3.203 3.433l-.293-4.16m3.277 4.472l-.367-5.203m3.352 5.516l-.442-6.243m1.915 6.395l-.477-6.754" stroke="#000" stroke-miterlimit="10" fill="none"/><path d="M116.2 107.293h8v11h-8zm0 0" fill="#fff"/><use xlink:href="#b" x="116.199" y="115.956" fill="#f00"/><path d="M101.063 114.148L90.32 98.25M101.063 114.148l-8.4 17.25M92.664 131.398l-9.57.676" stroke-width="1.2" stroke="#000" stroke-miterlimit="10" fill="none"/><path d="M83.094 132.074l-9.567.676M73.527 132.75l-5.37-7.95" stroke-width="1.2" stroke="#00f" stroke-miterlimit="10" fill="none"/><path d="M68.156 124.8l-5.37-7.948M65.13 150l4.198-8.625" stroke-width="1.2" stroke="#000" stroke-miterlimit="10" fill="none"/><path d="M69.328 141.375l4.2-8.625" stroke-width="1.2" stroke="#00f" stroke-miterlimit="10" fill="none"/><path d="M70.527 127.25h7v11h-7zm0 0" fill="#fff"/><use xlink:href="#a" x="70.527" y="135.913" fill="#00f"/><path d="M62.785 116.852l-19.137 1.35M43.648 118.203l-8.398 17.25M35.25 135.453l10.738 15.9M45.988 151.352L65.128 150M48.223 155.72l15.308-1.083" stroke-width="1.2" stroke="#000" stroke-miterlimit="10" fill="none"/><path d="M37.594 168.602l4.2-8.625" stroke-width="1.2" stroke="#00f" stroke-miterlimit="10" fill="none"/><path d="M41.793 159.977l4.195-8.625M65.13 150l10.737 15.898M75.867 165.898l-8.398 17.25M70.97 165.648l-6.72 13.797M67.47 183.148L48.33 184.5M67.47 183.148l10.74 15.9M48.332 184.5l-5.37-7.95" stroke-width="1.2" stroke="#000" stroke-miterlimit="10" fill="none"/><path d="M42.96 176.55l-5.366-7.948" stroke-width="1.2" stroke="#00f" stroke-miterlimit="10" fill="none"/><path d="M51 180.383l-4.297-6.36" stroke-width="1.2" stroke="#000" stroke-miterlimit="10" fill="none"/><path d="M46.703 174.023l-4.297-6.36" stroke-width="1.2" stroke="#00f" stroke-miterlimit="10" fill="none"/><path d="M48.332 184.5l-8.398 17.25" stroke-width="1.2" stroke="#000" stroke-miterlimit="10" fill="none"/><path d="M34.594 163.102h7v11h-7zm0 0" fill="#fff"/><use xlink:href="#a" x="34.594" y="171.765" fill="#00f"/><path d="M242.043 162.535l2.176-9.344" stroke-width="1.2" stroke="#00f" stroke-miterlimit="10" fill="none"/><path d="M244.22 153.19l2.175-9.338" stroke-width="1.2" stroke="#000" stroke-miterlimit="10" fill="none"/><path d="M238.082 159.645l1.738-7.477" stroke-width="1.2" stroke="#00f" stroke-miterlimit="10" fill="none"/><path d="M239.82 152.168l1.743-7.473" stroke-width="1.2" stroke="#000" stroke-miterlimit="10" fill="none"/><path d="M239.043 157.035h7v11h-7zm0 0" fill="#fff"/><use xlink:href="#a" x="239.043" y="165.698" fill="#00f"/><path d="M246.395 143.852l18.355-5.58" stroke-width="1.2" stroke="#000" stroke-miterlimit="10" fill="none"/></g></svg>
